static/logo.svg

<svg width="62" height="30" viewBox="0 0 62 30" fill="none" xmlns="http://www.w3.org/2000/svg">
<path d="M47.5473 21.9811C47.5881 21.9143 47.6272 21.8525 47.6646 21.7899C48.9592 19.5873 50.2529 17.3839 51.5509 15.183C51.6283 15.0519 51.6351 14.9584 51.5552 14.8232C50.2521 12.6173 48.9541 10.4089 47.6612 8.19714C47.5813 8.06022 47.4954 8.01847 47.3407 8.0193C43.2062 8.02181 39.0716 8.02014 34.9379 8.0193C34.8521 8.0193 34.7671 8.0193 34.6506 8.0193C34.6999 7.92746 34.728 7.86902 34.7603 7.81307C36.2546 5.26903 37.7515 2.72582 39.2408 0.178441C39.3207 0.0423473 39.4074 0.000600598 39.5612 0.000600598C43.3082 0.00477527 47.0551 0.0056102 50.802 0.0031054C51.5926 0.00227047 52.2445 0.286148 52.7478 0.88563C52.8464 1.00336 52.928 1.13695 53.0053 1.2697C55.6668 5.79671 58.3265 10.3237 60.9871 14.8507C61.0143 14.8967 61.0398 14.9442 61.0721 15.0019C61.0347 15.0678 60.9956 15.1371 60.9557 15.2056C58.2993 19.7276 55.6438 24.2496 52.9849 28.7699C52.5055 29.5856 51.7787 29.9973 50.8199 29.9973C45.4953 29.9989 40.1707 29.9981 34.847 29.9981C34.779 29.9981 34.7118 29.9981 34.6421 29.9981C34.5996 29.9288 34.5596 29.867 34.5222 29.8044C31.6449 24.9067 28.7675 20.0098 25.8902 15.1121C24.542 12.8168 23.1922 10.5216 21.85 8.22219C21.759 8.06606 21.6604 8.01763 21.4819 8.01847C18.9046 8.02431 16.3273 8.02431 13.75 8.01847C13.5783 8.01847 13.4865 8.06856 13.4007 8.21635C12.1222 10.4047 10.8361 12.5897 9.55174 14.7748C9.51094 14.8441 9.47098 14.9142 9.42593 14.9927C9.45143 15.0428 9.47608 15.097 9.50584 15.148C10.814 17.3739 12.1231 19.599 13.4262 21.8283C13.5052 21.9635 13.5987 21.9836 13.7373 21.9836C17.8718 21.9811 22.0064 21.9819 26.1409 21.9827C26.2293 21.9827 26.3169 21.9827 26.4011 21.9827C26.4079 21.9969 26.4113 22.0019 26.4138 22.0086C26.4164 22.0145 26.4206 22.0228 26.4181 22.027C26.4011 22.0629 26.3849 22.0996 26.3645 22.1347C24.8259 24.753 23.2874 27.3714 21.7437 29.9981C21.6638 29.9981 21.5899 29.9981 21.5159 29.9981C17.769 29.9981 14.022 29.9981 10.2751 29.9981C9.29928 29.9981 8.5657 29.5848 8.07778 28.7549C5.41379 24.222 2.75064 19.6892 0.0874922 15.1555C0.056891 15.1037 0.0305401 15.0503 -6.10352e-05 14.9943C0.0908923 14.8399 0.179296 14.6896 0.267699 14.5393C2.82884 10.1793 5.38999 5.82009 7.95198 1.46006C8.01318 1.3557 8.07438 1.25133 8.13814 1.14947C8.57675 0.453135 9.21342 0.0749097 10.0439 0.0106198C10.1383 0.0031054 10.2343 0.00394033 10.3295 0.00394033C15.6125 0.00394033 20.8963 0.00394033 26.1792 0.00394033C26.2064 0.00394033 26.2344 0.008115 26.2608 0.0031054C26.3977 -0.0202727 26.4665 0.0481918 26.5311 0.159238C27.0088 0.982483 27.4933 1.80322 27.9753 2.62396C30.3741 6.70595 32.7729 10.7879 35.1708 14.8699C36.5266 17.1769 37.8816 19.4838 39.2331 21.7932C39.313 21.9293 39.3972 21.9852 39.5646 21.9852C42.1555 21.9794 44.7464 21.9811 47.3373 21.9811C47.4062 21.9811 47.4733 21.9811 47.5473 21.9811Z" fill="#01829E"/>
<path d="M56.9614 21.9842C56.9155 22.0719 56.8874 22.1312 56.8551 22.1871C55.5614 24.3897 54.2702 26.5947 52.9705 28.7948C52.5021 29.5871 51.7864 29.9971 50.8539 29.9979C45.5098 30.0029 40.1648 30.0004 34.8206 30.0004C34.7662 30.0004 34.7127 30.0004 34.6438 30.0004C28.7735 20.0155 22.904 10.0296 17.0176 0.0171236C17.1187 0.012114 17.1842 0.00626942 17.2488 0.00626942C20.2477 0.00543449 23.2457 0.00710436 26.2446 0.00292969C26.3832 0.00292969 26.4623 0.0430065 26.5337 0.164072C29.4246 5.09185 32.319 10.0171 35.2133 14.9432C36.5615 17.2385 37.9113 19.5337 39.2544 21.8323C39.3334 21.9675 39.4261 21.9876 39.5655 21.9876C45.2496 21.9851 50.9346 21.9851 56.6188 21.9851C56.72 21.9842 56.822 21.9842 56.9614 21.9842ZM4.70571 6.98798C3.12465 9.67898 1.56315 12.3366 -6.10352e-05 14.9958C0.0339402 15.0576 0.0611412 15.1102 0.0908923 15.162C2.75404 19.6948 5.41634 24.2269 8.08033 28.7589C8.56825 29.5888 9.30353 29.9996 10.2794 29.9996C14.0255 29.9996 17.7715 29.9996 21.5176 29.9996C21.5916 29.9996 21.6655 29.9996 21.7437 29.9996C23.2916 27.3662 24.8336 24.7428 26.3747 22.1187C26.3917 22.0903 26.4045 22.0585 26.4181 22.0285C26.4198 22.0235 26.4164 22.016 26.4138 22.0101C26.4113 22.0043 26.4079 21.9984 26.4002 21.9834C22.1152 21.9834 17.8259 21.9834 13.5154 21.9834C10.5794 16.9855 7.65022 11.9993 4.70571 6.98798Z" fill="url(#paint0_linear)"/>
<defs>
<linearGradient id="paint0_linear" x1="55.9286" y1="50.9555" x2="-1.34314" y2="-13.8014" gradientUnits="userSpaceOnUse">
<stop offset="0.3296" stop-color="#01FEDA"/>
<stop offset="0.6648" stop-color="#01FEFE"/>
</linearGradient>
</defs>
</svg>

<svg width="62" height="30" fill="none" xmlns="http://www.w3.org/2000/svg"><path d="M47.547 21.981l.118-.191c1.294-2.203 2.588-4.406 3.886-6.607.077-.131.084-.225.004-.36a1673.848 1673.848 0 01-3.894-6.626c-.08-.137-.166-.179-.32-.178-4.135.003-8.27.001-12.403 0h-.287c.049-.092.077-.15.11-.206 1.494-2.544 2.99-5.087 4.48-7.635.08-.136.166-.177.32-.177 3.747.004 7.494.005 11.241.002.79 0 1.443.283 1.946.883.098.117.18.25.257.384l7.982 13.58.085.152-.116.204c-2.657 4.522-5.312 9.044-7.971 13.564-.48.816-1.206 1.227-2.165 1.227-5.325.002-10.65.001-15.973.001h-.205c-.042-.07-.082-.131-.12-.194L25.89 15.112c-1.348-2.295-2.698-4.59-4.04-6.89-.091-.156-.19-.204-.368-.204-2.577.006-5.155.006-7.732 0-.172 0-.264.05-.35.198-1.278 2.189-2.564 4.374-3.848 6.559l-.126.218c.025.05.05.104.08.155 1.308 2.226 2.617 4.451 3.92 6.68.08.136.173.156.311.156 4.135-.003 8.27-.002 12.404-.001h.26l.013.026c.002.006.007.014.004.018-.017.036-.033.073-.053.108-1.54 2.618-3.078 5.236-4.621 7.863H10.276c-.977 0-1.71-.413-2.198-1.243l-7.99-13.6c-.031-.051-.057-.105-.088-.16l.268-.456C2.828 10.18 5.39 5.82 7.952 1.46c.061-.104.122-.209.186-.31C8.577.452 9.213.074 10.044.01c.094-.007.19-.006.285-.006h15.85c.027 0 .055.004.082 0 .137-.024.206.044.27.155.478.823.962 1.644 1.444 2.465 2.4 4.082 4.798 8.164 7.196 12.246a4362.56 4362.56 0 014.062 6.923c.08.136.164.192.332.192 2.59-.006 5.181-.004 7.772-.004h.21z" fill="#01829E"/><path d="M56.961 21.984c-.045.088-.074.147-.106.203-1.294 2.203-2.585 4.408-3.884 6.608-.469.792-1.185 1.202-2.117 1.203-5.344.005-10.69.002-16.033.002h-.177L17.018.017c.1-.005.166-.01.23-.01 3-.002 5.998 0 8.997-.004.138 0 .217.04.289.161 2.89 4.928 5.785 9.853 8.68 14.78 1.348 2.294 2.697 4.59 4.04 6.888.08.136.172.156.312.156 5.684-.003 11.369-.003 17.053-.003h.342zM4.706 6.988L0 14.996l.09.166 7.99 13.597c.488.83 1.224 1.24 2.2 1.24h11.464c1.548-2.633 3.09-5.256 4.63-7.88.018-.029.03-.06.044-.09.002-.006-.002-.013-.004-.019l-.014-.027H13.515L4.705 6.988z" fill="url(#prefix__paint0_linear)"/><defs><linearGradient id="prefix__paint0_linear" x1="55.929" y1="50.956" x2="-1.343" y2="-13.801" gradientUnits="userSpaceOnUse"><stop offset=".33" stop-color="#01FEDA"/><stop offset=".665" stop-color="#01FEFE"/></linearGradient></defs></svg>
